!!!!SEGMENT: pl-wtm--r-609-2-m--001-002_moniuszko-stanislaw--libella-albo-zemsta-owadu-das-sumsen-der-insecten.krn
!!!cenid: 18xx:3002
!!!COM: Moniuszko, Stanisław
!!!COM-rismID: pe30008351
!!!CDT: 1819/05/05-1872/06/04
!!!CNT: Polish
!!!OPR: Libella albo Zemsta Owadu
!!!OTL: Das Sumsen der Insecten
!!!OMV: 002
!!!PDT: 1871
!!!AGN: Secular
!!!SMS-siglum: PL-Wtm
!!!SMS-shelfmark: R 609/2/M
!!!SMS-shelfwork: 001-002 M
!!!SMS-variant:
!!!SMS-altvar:
!!!NIFC-rismSourceID: 1001090850
!!!NIFC-rismChildID: 1001090850
!!!NIFC-islandoraID:
!!!URL-pdf-islandora:
!!!URL-scan:
!!!IIIF:
!!!ONB-nifc: UWAGA: obsada: vl, pf. Skany 0006-0007
!!!OMD: Allegro agitato ma non troppo presto .
!!!AIN: 1 forte 1 violn
!!!key:
**kern	**kern	**dynam	**fing	**kern	**dynam
*part2	*part2	*part2	*	*part1	*part1
*staff3	*staff2	*	*	*staff1	*
*Iforte	*Iempty	*	*	*Ivioln	*
*I"fortepian	*	*	*	*I"skrzypce	*
*clefF4	*clefG2	*	*	*clefG2	*
*k[f#]	*k[f#]	*	*	*k[f#]	*
*e:	*e:	*	*	*e:	*
*M3/4	*M3/4	*	*	*M3/4	*
=1	=1	=1	=1	=1	=1
*all\right	*all\right	*	*	*all\right	*
*	*	*	*	*tremolo	*
!	!LO:TX:a:t=(x)	!LO:DY:rj	!	!	!
2.r	16gg\LL	f	.	16bb\LL	f
.	16ee\	.	.	16bb\	.
.	16aa\	.	.	16ccc\	.
.	16ee\JJ	.	.	16ccc\	.
.	16gg\LL	.	4	16bb\	.
.	16ee\	.	.	16bb\	.
.	16cc\	.	.	16aa\	.
.	16ee\JJ	.	.	16aa\	.
.	16b\LL	.	.	16gg\	.
.	16ee\	.	.	16gg\	.
.	16a\	.	1	16ff#\	.
.	16b\JJ	.	4	16ff#\JJ	.
=2	=2	=2	=2	=2	=2
*	*	*	*below	*	*
2.r	16g/LL	.	3	16ee\LL	.
.	16e/	.	.	16ee\	.
.	16f#/	.	.	16a\	.
.	16e/JJ	.	.	16a\	.
.	16g/LL	.	.	16dd\	.
.	16b/	.	.	16dd\	.
.	16dd#X/	.	.	16ff#\	.
.	16b/JJ	.	1	16ff#\	.
.	16ee\LL	.	.	16gg\	.
.	16b\	.	.	16gg\	.
.	16ff#\	.	.	16aa\	.
.	16b\JJ	.	.	16aa\JJ	.
=3	=3	=3	=3	=3	=3
*	*	*	*above	*	*
2.r	16gg\LL	.	.	16bb\LL	.
.	16ee\	.	1	16bb\	.
.	16aa#X\ 16gg\	.	.	16eee\	.
.	16ee\JJ	.	.	16eee\	.
.	16bb\LL 16gg\	.	.	16bb\	.
.	16ee\	.	2	16bb\	.
.	16cc\	.	1	16aa\	.
.	16ee\JJ	.	4	16aa\	.
.	16b\LL	.	.	16gg\	.
.	16ee\	.	.	16gg\	.
.	16a\	.	.	16ff#\	.
.	16ee\JJ	.	.	16ff#\JJ	.
=4	=4	=4	=4	=4	=4
*	*	*	*below	*	*
2.r	16g/LL	.	.	16ee\LL	.
.	16b/	.	.	16ee\	.
.	16dd#X/	.	.	16ff#\	.
.	16b/JJ	.	1	16ff#\	.
.	16ee\LL	.	.	16gg\	.
.	16b\	.	.	16gg\	.
.	16ff#\	.	.	16aa\	.
.	16ee\JJ	.	.	16aa\	.
.	16gg\LL	.	.	16bb\	.
.	16ee\	.	.	16bb\	.
.	16aa\	.	.	16ccc#X\	.
.	16gg\JJ	.	.	16ccc#\JJ	.
=5	=5	=5	=5	=5	=5
2.r	16ee\LL	.	.	16eee\LL	.
.	16gg\	.	.	16eee\	.
.	16ff#\	.	.	16ddd\	.
.	16aa\JJ	.	.	16ddd\	.
.	16ff#\LL	.	.	16aa\	.
.	16dd\	.	.	16aa\	.
.	16gg\	.	.	16bb\	.
.	16ff#\JJ	.	.	16bb\	.
.	16ee\LL	.	.	16ccc\	.
.	16gg'\	.	.	16ccc\	.
.	16dd\	.	.	16bb\	.
.	16ff#\JJ	.	.	16bb\JJ	.
=6	=6	=6	=6	=6	=6
4r	16cc\LL	.	.	16aa\LL	.
.	16ee'\	.	.	16aa\	.
.	16b\	.	.	16gg\	.
.	16dd\JJ	.	.	16gg\	.
8a>\L	16dd#X/LL	.	.	16bb\	.
.	16b/	.	.	16bb\	.
8g>\	16ee/	.	.	16ee\	.
.	16b/JJ	.	.	16ee\	.
8f#>\	16aa/LL	.	.	16dd#X\	.
.	16b/	.	.	16dd#\	.
8e>\J	16gg/	.	.	16ee\	.
.	16b/JJ	.	.	16ee\JJ	.
!!LO:LB:g=original
=7	=7	=7	=7	=7	=7
8b>\	16ff#\LL 16dd\	.	.	16ff#\LL	.
.	16bb\	.	.	16ff#\	.
8r	16ffn\ 16dd\	.	.	16gg#X\	.
.	16gg#X\JJ	.	.	16gg#\	.
4r	16ee\LL 16cc\	.	.	16aa\	.
.	16aa\	.	.	16aa\	.
.	16dd\ 16b\	.	.	16bb\	.
.	16ggn\JJ	.	.	16bb\	.
4r	16cc\LL 16a\	.	.	16ccc\	.
.	16ff\	.	.	16ccc\	.
.	16b-X\ 16g\	.	.	16ccc#X\	.
.	16ee\JJ	.	.	16ccc#\JJ	.
=8	=8	=8	=8	=8	=8
2.ryy	16a\LL 16f#\	.	.	16ddd\LL	.
.	16dd\	.	.	16ddd\	.
.	16b-X\ 16g\	.	.	16ddd#X\	.
.	16ee-\JJ	.	.	16ddd#\	.
.	16bn\LL 16g#X\	.	.	16eee\	.
.	16een\ 16cc\	.	.	16eee\	.
.	16cc\ 16a\	.	.	16ccc\	.
.	16ffn\JJ	.	.	16ccc\	.
!	!LO:TX:a:t=(xx)	!	!	!	!
.	16b-X\LL 16gn\	.	.	16dddn\	.
.	16ff\	.	.	16ddd\	.
.	16b-\ 16g\	.	.	16eee\	.
.	16gg\JJ	.	.	16eee\JJ	.
=9||	=9||	=9||	=9||	=9||	=9||
!!!OMD: "Eine neue Musik ....
*k[b-]	*k[b-]	*	*	*k[b-]	*
*ped	*	*	*	*2\right	*
*2\right	*	*	*	*	*
!	!	!	!LO:DY:t=pp/	!LO:TX:b:i:t=piu lento.	!
[>2.A-X\ [2.F\ [>2.D-X\	4ff/ 4f/	pp	.	32fffn\LLL 32ffn\	.
.	.	.	.	32fff\ 32ff\	.
.	.	.	.	32fff\ 32ff\	.
.	.	.	.	32fff\ 32ff\	.
.	.	.	.	32fff\ 32ff\	.
.	.	.	.	32fff\ 32ff\	.
.	.	.	.	32fff\ 32ff\	.
.	.	.	.	32fff\ 32ff\	.
.	4r	.	.	32fff\ 32ff\	.
.	.	.	.	32fff\ 32ff\	.
.	.	.	.	32fff\ 32ff\	.
.	.	.	.	32fff\ 32ff\	.
.	.	.	.	32fff\ 32ff\	.
.	.	.	.	32fff\ 32ff\	.
.	.	.	.	32fff\ 32ff\	.
.	.	.	.	32fff\ 32ff\	.
.	4r	.	.	32fff\ 32ff\	.
.	.	.	.	32fff\ 32ff\	.
.	.	.	.	32fff\ 32ff\	.
.	.	.	.	32fff\ 32ff\	.
.	.	.	.	32fff\ 32ff\	.
.	.	.	.	32fff\ 32ff\	.
.	.	.	.	32fff\ 32ff\	.
.	.	.	.	32fff\JJJ 32ff\	.
=10	=10	=10	=10	=10	=10
*	*	*	*	*rep	*
8.A-\]L 8.F\] 8.D-\]	2.ryy	.	.	32fff\LLL 32ff\	.
.	.	.	.	32fff\ 32ff\	.
.	.	.	.	32fff\ 32ff\	.
.	.	.	.	32fff\ 32ff\	.
.	.	.	.	32fff\ 32ff\	.
.	.	.	.	32fff\ 32ff\	.
16a->X\Jk 16f>\ 16d-X>\	.	.	.	32fff\ 32ff\	.
.	.	.	.	32fff\ 32ff\	.
2a->\ 2f>\ 2d->^>\	.	.	.	32fff\ 32ff\	.
.	.	.	.	32fff\ 32ff\	.
.	.	.	.	32fff\ 32ff\	.
.	.	.	.	32fff\ 32ff\	.
.	.	.	.	32fff\ 32ff\	.
.	.	.	.	32fff\ 32ff\	.
.	.	.	.	32fff\ 32ff\	.
.	.	.	.	32fff\ 32ff\	.
.	.	.	.	32fff\ 32ff\	.
.	.	.	.	32fff\ 32ff\	.
.	.	.	.	32fff\ 32ff\	.
.	.	.	.	32fff\ 32ff\	.
.	.	.	.	32fff\ 32ff\	.
.	.	.	.	32fff\ 32ff\	.
.	.	.	.	32fff\ 32ff\	.
!	!	!	!	!LO:TX:t=P:problem=wykreślone 2 takty	!
.	.	.	.	32fff\JJJ 32ff\	.
*	*	*	*	*Xrep	*
=11	=11	=11	=11	=11	=11
*	*	*	*	*rep	*
2A-X\ 2F\ 2D-X\	2.ryy	.	.	32fff\LLL 32ff\	.
.	.	.	.	32fff\ 32ff\	.
.	.	.	.	32fff\ 32ff\	.
.	.	.	.	32fff\ 32ff\	.
.	.	.	.	32fff\ 32ff\	.
.	.	.	.	32fff\ 32ff\	.
.	.	.	.	32fff\ 32ff\	.
.	.	.	.	32fff\ 32ff\	.
.	.	.	.	32fff\ 32ff\	.
.	.	.	.	32fff\ 32ff\	.
.	.	.	.	32fff\ 32ff\	.
.	.	.	.	32fff\ 32ff\	.
.	.	.	.	32fff\ 32ff\	.
.	.	.	.	32fff\ 32ff\	.
.	.	.	.	32fff\ 32ff\	.
.	.	.	.	32fff\ 32ff\	.
8d->\L 8A-\ 8F\	.	.	.	32fff\ 32ff\	.
.	.	.	.	32fff\ 32ff\	.
.	.	.	.	32fff\ 32ff\	.
.	.	.	.	32fff\ 32ff\	.
8f>\J 8d->\ 8A-\	.	.	.	32fff\ 32ff\	.
.	.	.	.	32fff\ 32ff\	.
.	.	.	.	32fff\ 32ff\	.
.	.	.	.	32fff\JJJ 32ff\	.
*	*	*	*	*Xrep	*
=12	=12	=12	=12	=12	=12
*	*	*	*	*rep	*
2.ryy	2a-X/ 2f/ 2d-X/	.	.	32fff\LLL 32ff\	.
.	.	.	.	32fff\ 32ff\	.
.	.	.	.	32fff\ 32ff\	.
.	.	.	.	32fff\ 32ff\	.
*Xped	*	*	*	*	*
.	.	.	.	32fff\ 32ff\	.
.	.	.	.	32fff\ 32ff\	.
.	.	.	.	32fff\ 32ff\	.
.	.	.	.	32fff\ 32ff\	.
.	.	.	.	32fff\ 32ff\	.
.	.	.	.	32fff\ 32ff\	.
.	.	.	.	32fff\ 32ff\	.
.	.	.	.	32fff\ 32ff\	.
.	.	.	.	32fff\ 32ff\	.
.	.	.	.	32fff\ 32ff\	.
.	.	.	.	32fff\ 32ff\	.
.	.	.	.	32fff\ 32ff\	.
.	4b-X/ 4f/ 4d-/	.	.	32fff\ 32ff\	.
.	.	.	.	32fff\ 32ff\	.
.	.	.	.	32fff\ 32ff\	.
.	.	.	.	32fff\ 32ff\	.
.	.	.	.	32fff\ 32ff\	.
.	.	.	.	32fff\ 32ff\	.
.	.	.	.	32fff\ 32ff\	.
.	.	.	.	32fff\JJJ 32ff\	.
*	*	*	*	*Xrep	*
=13	=13	=13	=13	=13	=13
*ped	*	*	*	*rep	*
2d\ 2Bn\ 2G\	4bn/	.	.	32fff\LLL 32ff\	.
.	.	.	.	32fff\ 32ff\	.
.	.	.	.	32fff\ 32ff\	.
.	.	.	.	32fff\ 32ff\	.
.	.	.	.	32fff\ 32ff\	.
.	.	.	.	32fff\ 32ff\	.
.	.	.	.	32fff\ 32ff\	.
.	.	.	.	32fff\ 32ff\	.
.	2ryy	.	.	32fff\ 32ff\	.
.	.	.	.	32fff\ 32ff\	.
.	.	.	.	32fff\ 32ff\	.
.	.	.	.	32fff\ 32ff\	.
.	.	.	.	32fff\ 32ff\	.
.	.	.	.	32fff\ 32ff\	.
.	.	.	.	32fff\ 32ff\	.
.	.	.	.	32fff\ 32ff\	.
8g>\L 8d>\ 8Bn>\	.	.	.	32fff\ 32ff\	.
.	.	.	.	32fff\ 32ff\	.
.	.	.	.	32fff\ 32ff\	.
.	.	.	.	32fff\ 32ff\	.
8bn>\J 8g>\ 8d>\	.	.	.	32fff\ 32ff\	.
.	.	.	.	32fff\ 32ff\	.
.	.	.	.	32fff\ 32ff\	.
.	.	.	.	32fff\JJJ 32ff\	.
*	*	*	*	*Xrep	*
=14	=14	=14	=14	=14	=14
*	*	*	*	*rep	*
2.ryy	2dd/ 2bn/ 2g/	.	.	32fff\LLL 32ff\	.
.	.	.	.	32fff\ 32ff\	.
.	.	.	.	32fff\ 32ff\	.
.	.	.	.	32fff\ 32ff\	.
.	.	.	.	32fff\ 32ff\	.
.	.	.	.	32fff\ 32ff\	.
.	.	.	.	32fff\ 32ff\	.
*Xped	*	*	*	*	*
.	.	.	.	32fff\ 32ff\	.
.	.	.	.	32fff\ 32ff\	.
.	.	.	.	32fff\ 32ff\	.
.	.	.	.	32fff\ 32ff\	.
.	.	.	.	32fff\ 32ff\	.
.	.	.	.	32fff\ 32ff\	.
.	.	.	.	32fff\ 32ff\	.
.	.	.	.	32fff\ 32ff\	.
.	.	.	.	32fff\ 32ff\	.
.	4ff/ 4dd/ 4b/ 4g#X/	.	.	32fff\ 32ff\	.
.	.	.	.	32fff\ 32ff\	.
.	.	.	.	32fff\ 32ff\	.
.	.	.	.	32fff\ 32ff\	.
.	.	.	.	32fff\ 32ff\	.
.	.	.	.	32fff\ 32ff\	.
.	.	.	.	32fff\ 32ff\	.
.	.	.	.	32fff\JJJ 32ff\	.
*	*	*	*	*Xrep	*
!!LO:LB:g=original
=15	=15	=15	=15	=15	=15
*	*	*	*	*rep	*
2f>\ 2c\ 2A\	4ff/ 4cc/ 4a/	.	.	32fff\LLL 32ff\	.
.	.	.	.	32fff\ 32ff\	.
.	.	.	.	32fff\ 32ff\	.
.	.	.	.	32fff\ 32ff\	.
.	.	.	.	32fff\ 32ff\	.
.	.	.	.	32fff\ 32ff\	.
.	.	.	.	32fff\ 32ff\	.
.	.	.	.	32fff\ 32ff\	.
.	4r	.	.	32fff\ 32ff\	.
.	.	.	.	32fff\ 32ff\	.
.	.	.	.	32fff\ 32ff\	.
.	.	.	.	32fff\ 32ff\	.
.	.	.	.	32fff\ 32ff\	.
.	.	.	.	32fff\ 32ff\	.
.	.	.	.	32fff\ 32ff\	.
.	.	.	.	32fff\ 32ff\	.
8a>\L 8f>\ 8c\	4r	.	.	32fff\ 32ff\	.
.	.	.	.	32fff\ 32ff\	.
.	.	.	.	32fff\ 32ff\	.
.	.	.	.	32fff\ 32ff\	.
8cc>\J 8a>\ 8f>\	.	.	.	32fff\ 32ff\	.
.	.	.	.	32fff\ 32ff\	.
.	.	.	.	32fff\ 32ff\	.
.	.	.	.	32fff\JJJ 32ff\	.
*	*	*	*	*Xrep	*
=16	=16	=16	=16	=16	=16
*	*	*	*	*rep	*
2f>\ 2e->X\	(2cc/ 2a^/	.	.	32fff\LLL 32ff\	.
.	.	.	.	32fff\ 32ff\	.
.	.	.	.	32fff\ 32ff\	.
.	.	.	.	32fff\ 32ff\	.
.	.	.	.	32fff\ 32ff\	.
.	.	.	.	32fff\ 32ff\	.
.	.	.	.	32fff\ 32ff\	.
.	.	.	.	32fff\ 32ff\	.
.	.	.	.	32fff\ 32ff\	.
.	.	.	.	32fff\ 32ff\	.
.	.	.	.	32fff\ 32ff\	.
.	.	.	.	32fff\ 32ff\	.
.	.	.	.	32fff\ 32ff\	.
.	.	.	.	32fff\ 32ff\	.
.	.	.	.	32fff\ 32ff\	.
.	.	.	.	32fff\ 32ff\	.
4d>\	4b-X/ 4f/	.	.	32fff\ 32ff\	.
.	.	.	.	32fff\ 32ff\	.
.	.	.	.	32fff\ 32ff\	.
.	.	.	.	32fff\ 32ff\	.
.	.	.	.	32fff\ 32ff\	.
.	.	.	.	32fff\ 32ff\	.
.	.	.	.	32fff\ 32ff\	.
.	.	.	.	32fff\JJJ 32ff\	.
*	*	*	*	*Xrep	*
=17	=17	=17	=17	=17	=17
*	*	*	*	*rep	*
4f>\ 4c>\	4a/	.	.	32fff\LLL 32ff\	.
.	.	.	.	32fff\ 32ff\	.
.	.	.	.	32fff\ 32ff\	.
.	.	.	.	32fff\ 32ff\	.
.	.	.	.	32fff\ 32ff\	.
.	.	.	.	32fff\ 32ff\	.
.	.	.	.	32fff\ 32ff\	.
.	.	.	.	32fff\ 32ff\	.
4c>\ 4B->\	4g/	.	.	32fff\ 32ff\	.
.	.	.	.	32fff\ 32ff\	.
.	.	.	.	32fff\ 32ff\	.
.	.	.	.	32fff\ 32ff\	.
.	.	.	.	32fff\ 32ff\	.
.	.	.	.	32fff\ 32ff\	.
.	.	.	.	32fff\ 32ff\	.
.	.	.	.	32fff\ 32ff\	.
4c>\ 4A\	4f/)	.	.	32fff\ 32ff\	.
.	.	.	.	32fff\ 32ff\	.
.	.	.	.	32fff\ 32ff\	.
.	.	.	.	32fff\ 32ff\	.
.	.	.	.	32fff\ 32ff\	.
.	.	.	.	32fff\ 32ff\	.
.	.	.	.	32fff\ 32ff\	.
.	.	.	.	32fff\JJJ 32ff\	.
*	*	*	*	*Xrep	*
=18	=18	=18	=18	=18	=18
*^	*^	*	*	*	*
*	*	*	*2\right	*	*	*	*
4c#X/	2.A\	(4gg/	2.a\	.	.	32eee\LLL	.
.	.	.	.	.	.	32eee\	.
.	.	.	.	.	.	32eee\	.
.	.	.	.	.	.	32eee\	.
.	.	.	.	.	.	32eee\	.
.	.	.	.	.	.	32eee\	.
.	.	.	.	.	.	32eee\	.
.	.	.	.	.	.	32eee\JJJ	.
4d/	.	4ff/	.	.	.	32aa\LLL	.
.	.	.	.	.	.	32aa\	.
.	.	.	.	.	.	32aa\	.
.	.	.	.	.	.	32aa\	.
.	.	.	.	.	.	32aa\	.
.	.	.	.	.	.	32aa\	.
.	.	.	.	.	.	32aa\	.
.	.	.	.	.	.	32aa\JJJ	.
4f/	.	4ee-X/	.	.	.	32ccc\LLL	.
.	.	.	.	.	.	32ccc\	.
.	.	.	.	.	.	32ccc\	.
.	.	.	.	.	.	32ccc\	.
.	.	.	.	.	.	32ccc\	.
.	.	.	.	.	.	32ccc\	.
.	.	.	.	.	.	32ccc\	.
.	.	.	.	.	.	32ccc\JJJ	.
*v	*v	*	*	*	*	*	*
=19	=19	=19	=19	=19	=19	=19
2.B-\	4dd/	4f#X\	.	.	32bb-\LLL	.
.	.	.	.	.	32bb-\	.
.	.	.	.	.	32bb-\	.
.	.	.	.	.	32bb-\	.
.	.	.	.	.	32bb-\	.
.	.	.	.	.	32bb-\	.
.	.	.	.	.	32bb-\	.
.	.	.	.	.	32bb-\JJJ	.
.	4cc/	4a\	.	.	32ff#X\LLL	.
.	.	.	.	.	32ff#\	.
.	.	.	.	.	32ff#\	.
.	.	.	.	.	32ff#\	.
.	.	.	.	.	32ff#\	.
.	.	.	.	.	32ff#\	.
.	.	.	.	.	32ff#\	.
.	.	.	.	.	32ff#\JJJ	.
.	4b-/	4g\	.	.	32gg\LLL	.
.	.	.	.	.	32gg\	.
.	.	.	.	.	32gg\	.
.	.	.	.	.	32gg\	.
.	.	.	.	.	32gg\	.
.	.	.	.	.	32gg\	.
.	.	.	.	.	32gg\	.
.	.	.	.	.	32gg\JJJ	.
*	*	*	*	*	*Xtremolo	*
*	*v	*v	*	*	*	*
=20	=20	=20	=20	=20	=20
*^	*	*	*	*	*
*	*	*tremolo	*	*	*	*
4c\	2c/	32cc/LLL 32c/	.	.	2aa\	.
.	.	32cc/ 32c/	.	.	.	.
.	.	32cc/ 32c/	.	.	.	.
.	.	32cc/ 32c/	.	.	.	.
.	.	32cc/ 32c/	.	.	.	.
.	.	32cc/ 32c/	.	.	.	.
.	.	32cc/ 32c/	.	.	.	.
.	.	32cc/JJJ 32c/	.	.	.	.
2ryy	.	32bn/LLL 32e/	.	.	.	.
.	.	32b/ 32e/	.	.	.	.
.	.	32b/ 32e/	.	.	.	.
.	.	32b/ 32e/	.	.	.	.
.	.	32b/ 32e/	.	.	.	.
.	.	32b/ 32e/	.	.	.	.
.	.	32b/ 32e/	.	.	.	.
.	.	32b/JJJ 32e/	.	.	.	.
.	4c#X\	32b-X/LLL 32f/	.	.	4gg\	.
.	.	32b-/ 32f/	.	.	.	.
.	.	32b-/ 32f/	.	.	.	.
.	.	32b-/ 32f/	.	.	.	.
.	.	32b-/ 32f/	.	.	.	.
.	.	32b-/ 32f/	.	.	.	.
.	.	32b-/ 32f/	.	.	.	.
.	.	32b-/JJJ 32f/	.	.	.	.
*	*	*Xtremolo	*	*	*	*
*v	*v	*	*	*	*	*
=21	=21	=21	=21	=21	=21
!!!OMD: "Ruhe in Riede....
*	*^	*	*	*	*
2.d\	2a/	2.f\	.	.	(8ff\L	.
.	.	.	.	.	8ee\	.
.	.	.	.	.	8gg\	.
.	.	.	.	.	8ff\	.
.	4dd/)	.	.	.	8a\	.
.	.	.	.	.	8b-\J)	.
*	*v	*v	*	*	*	*
=22	=22	=22	=22	=22	=22
2.e\	(8g^>/L	.	.	[2.cc\	.
.	8f#X/	.	.	.	.
.	8a/	.	.	.	.
.	8g/	.	.	.	.
.	8c/	.	.	.	.
.	8b-/J)	.	.	.	.
=23	=23	=23	=23	=23	=23
(2f\	(4b-^>/	.	.	(8cc\L]	.
.	.	.	.	8ee\	.
.	4a/	.	.	8gg\)	.
.	.	.	.	8ff\	.
4Bn\)	4a-X/ 4f/)	.	.	(8ee\	.
.	.	.	.	8dd\J)	.
!!LO:PB:g=original
=24	=24	=24	=24	=24	=24
*^	*^	*	*	*	*
(<8B-X/L	4r	2g/	2e\	.	.	(4dd-X\	.
8A/J)	.	.	.	.	.	.	.
8qA/	.	.	.	.	.	.	.
(<8G/L	4r	.	.	.	.	4cc\)	.
8F#X/	.	.	.	.	.	.	.
8G/	[4C\	4b-/	4ryy	.	.	8.ee\L	.
8c/J)	.	.	.	.	.	.	.
.	.	.	.	.	.	32dd-\LL	.
.	.	.	.	.	.	32cc\JJJ	.
*v	*v	*	*	*	*	*	*
*	*v	*v	*	*	*	*
=25	=25	=25	=25	=25	=25
2.C\_< 2.FF\	[2.a/ 2.f/ 2.A/	.	.	(8cc\L	.
.	.	.	.	8dd\	.
.	.	.	.	8ee\	>
.	.	.	.	8ff\	.
.	.	.	.	8gg\	.
.	.	.	.	8gg#X\J	.
=26	=26	=26	=26	=26	=26
*rep	*rep	*	*	*	*
2.C\] 2.FF\	2.a/] 2.f/ 2.A/	.	.	8aa\L	.
.	.	.	.	8bb-\	.
.	.	.	.	8bbn\	.
.	.	.	.	8ccc\	.
.	.	.	.	8ddd\	]
!	!	!	!	!	!LO:DY:t=ppp.
.	.	.	.	8eee\J)	ppp
*Xrep	*Xrep	*	*	*	*
=27	=27	=27	=27	=27	=27
[2.F\ [>2.FF\	(8aa\L 8cc\	.	.	2.fffTT\	.
.	8gg#X\ 8bn\	.	.	.	.
.	8aa\ 8cc\	.	.	.	.
.	8ff\ 8a\	.	.	.	.
.	8cc\ 8a\	.	.	.	.
.	8bn\J 8g#X\	.	.	.	.
=28	=28	=28	=28	=28	=28
2.F\] 2.FF\]	8cc/L 8a/	.	.	2.fffTTT\	.
.	8a/ 8c/	.	.	.	.
.	8g#X/ 8Bn/	.	.	.	.
.	8a/ 8c/	.	.	.	.
.	8cc/ 8A/	.	.	.	.
.	8b-X/J 8d/)	.	.	.	.
.	.	.	.	16qqeee/LL	.
.	.	.	.	16qqfff/JJ	.
=29	=29	=29	=29	=29	=29
!LO:N:vis=2	!	!	!	!	!
2.F;\	2.a/ 2.c;/	.	.	2.aaa;\	.
=30	=30	=30	=30	=30	=30
*tremolo	*tremolo	*	*	*	*
*ped	*	*	*	*	*
!	!	!LO:DY:rj:t=fp.	!	!	!
32DD/LLL	32f/;LLL 32d/ 32Bn/	fp	.	2.r;	.
32D/	32A/	.	.	.	.
32DD/	32f/ 32d/ 32B/	.	.	.	.
32D/	32A/	.	.	.	.
32DD/	32f/ 32d/ 32B/	.	.	.	.
32D/	32A/	.	.	.	.
32DD/	32f/ 32d/ 32B/	.	.	.	.
32D/	32A/	.	.	.	.
32DD/	32f/ 32d/ 32B/	.	.	.	.
32D/	32A/	.	.	.	.
32DD/	32f/ 32d/ 32B/	.	.	.	.
32D/	32A/	.	.	.	.
32DD/	32f/ 32d/ 32B/	.	.	.	.
32D/	32A/	.	.	.	.
32DD/	32f/ 32d/ 32B/	.	.	.	.
32D/	32A/	.	.	.	.
32DD/	32f/ 32d/ 32B/	.	.	.	.
32D/	32A/	.	.	.	.
32DD/	32f/ 32d/ 32B/	.	.	.	.
32D/	32A/	.	.	.	.
32DD/	32f/ 32d/ 32B/	.	.	.	.
32D/	32A/	.	.	.	.
32DD/	32f/ 32d/ 32B/	.	.	.	.
32D/JJJ	32A;/JJJ	.	.	.	.
*Xped	*	*	*	*	*
==	==	==	==	==	==
*-	*-	*-	*-	*-	*-
!!!system-decoration: {(s1)<(s2,s3)>}
!!!RDF**kern: > = above
!!!RDF**kern: < = below
!!!ENC: Andrzej Gręziak
!!!END: 2021-09-02
!!!EED: Andrzej Borzym
!!!EEV: 2021-09-26
!!!YEC: Copyright 2022 Narodowy Instytut Fryderyka Chopina (https://polishscores.org)
!!!YEM: License CC-BY-4.0 (https://creativecommons.org/licenses/by/4.0)
